ion/umbrella-sharp.svg

<svg viewBox="0 0 512 512" xmlns="http://www.w3.org/2000/svg"><g><path d="M128.93 280l-.26-.3c-.9-.74-1.83-1.43-2.77-2.1Z"/><path d="M383.08 280l2.62-2.12c-.79.58-1.57 1.17-2.34 1.79Z"/><path d="M463.14 186.44v0C430.6 108.05 356.64 54.71 272 48.57V32h-32v16.57 -.001c-117.3 8.19-208.21 105.84-208 223.43v22.52l12.25-11.21h-.001c21.96-21.82 56.56-24.32 81.43-5.88l.22.17c.94.67 1.87 1.36 2.77 2.1q2.09 1.69 4 3.61l11.33 11.32 11.31-11.32h-.001c21.97-21.79 56.56-24.24 81.4-5.78l3.29 2.47v152 0c0 8.83-7.17 16-16 16 -8.84 0-16-7.17-16-16v-16h-32v16 0c0 26.5 21.49 48 48 48 26.5 0 48-21.5 48-48v-152l3.29-2.47v-.001c24.83-18.46 59.42-16.01 81.4 5.78l11.31 11.32 11.31-11.32q1.95-1.94 4.05-3.64c.77-.62 1.55-1.21 2.34-1.79l.26-.21c24.63-18.47 60-16.13 81.81 5.64l12.23 11.2v-22.51 0c.04-29.36-5.68-58.43-16.86-85.56Z"/></g></svg>

<svg xmlns="http://www.w3.org/2000/svg" width="512" height="512" viewBox="0 0 512 512"><path d="M128.93,280l-.26-.3c-.9-.74-1.83-1.43-2.77-2.1Z"/><path d="M383.08,280l2.62-2.12c-.79.58-1.57,1.17-2.34,1.79Z"/><path d="M463.14,186.44A224.55,224.55,0,0,0,272,48.57V32H240V48.57A223.58,223.58,0,0,0,32,272v22.52l12.25-11.21a62.63,62.63,0,0,1,81.43-5.88l.22.17c.94.67,1.87,1.36,2.77,2.1q2.09,1.69,4,3.61L144,294.63l11.31-11.32a62.59,62.59,0,0,1,81.4-5.78L240,280V432a16,16,0,0,1-32,0V416H176v16a48,48,0,0,0,96,0V280l3.29-2.47a62.59,62.59,0,0,1,81.4,5.78L368,294.63l11.31-11.32q1.95-1.94,4.05-3.64c.77-.62,1.55-1.21,2.34-1.79l.26-.21c24.63-18.47,60-16.13,81.81,5.64L480,294.51V272A223.62,223.62,0,0,0,463.14,186.44Z"/></svg>
